public/images/testStart.svg

<svg width="108" height="21" viewBox="0 0 108 21" fill="none" xmlns="http://www.w3.org/2000/svg">
<path d="M7.97195 4.71042C9.07513 2.73141 9.6267 1.7419 10.4514 1.7419C11.2761 1.7419 11.8277 2.7314 12.9308 4.71041L13.2162 5.22241C13.5298 5.78478 13.6865 6.06598 13.9309 6.25151C14.1753 6.43704 14.4796 6.5059 15.0884 6.64364L15.6427 6.76904C17.7849 7.25375 18.8561 7.4961 19.1109 8.31559C19.3657 9.13504 18.6355 9.989 17.175 11.6968L16.7972 12.1386C16.3822 12.6239 16.1747 12.8665 16.0813 13.1667C15.988 13.467 16.0194 13.7907 16.0821 14.4382L16.1392 15.0277C16.36 17.3063 16.4704 18.4456 15.8033 18.952C15.1361 19.4585 14.1332 18.9967 12.1274 18.0732L11.6085 17.8343C11.0385 17.5718 10.7535 17.4406 10.4514 17.4406C10.1493 17.4406 9.8643 17.5718 9.29435 17.8343L8.77544 18.0732C6.76962 18.9967 5.76673 19.4585 5.09955 18.952C4.43238 18.4456 4.54278 17.3063 4.76359 15.0277L4.8207 14.4382C4.88345 13.7907 4.91483 13.467 4.82147 13.1667C4.72812 12.8665 4.52062 12.6239 4.1056 12.1386L3.72777 11.6968C2.26731 9.989 1.53708 9.13504 1.79192 8.31559C2.04676 7.4961 3.11789 7.25375 5.26015 6.76904L5.81438 6.64364C6.42313 6.5059 6.72751 6.43704 6.97191 6.25151C7.21631 6.06598 7.37306 5.78479 7.68655 5.22241L7.97195 4.71042Z" fill="#F6BB06"/>
<path d="M29.6212 4.71042C30.7244 2.73141 31.276 1.7419 32.1007 1.7419C32.9254 1.7419 33.477 2.7314 34.5801 4.71041L34.8655 5.22241C35.1791 5.78478 35.3357 6.06598 35.5802 6.25151C35.8246 6.43704 36.1289 6.5059 36.7377 6.64364L37.292 6.76904C39.4342 7.25375 40.5054 7.4961 40.7602 8.31559C41.015 9.13504 40.2848 9.989 38.8243 11.6968L38.4465 12.1386C38.0315 12.6239 37.824 12.8665 37.7306 13.1667C37.6373 13.467 37.6687 13.7907 37.7314 14.4382L37.7885 15.0277C38.0093 17.3063 38.1197 18.4456 37.4526 18.952C36.7854 19.4585 35.7825 18.9967 33.7767 18.0732L33.2578 17.8343C32.6878 17.5718 32.4028 17.4406 32.1007 17.4406C31.7986 17.4406 31.5136 17.5718 30.9436 17.8343L30.4247 18.0732C28.4189 18.9967 27.416 19.4585 26.7488 18.952C26.0817 18.4456 26.1921 17.3063 26.4129 15.0277L26.47 14.4382C26.5327 13.7907 26.5641 13.467 26.4708 13.1667C26.3774 12.8665 26.1699 12.6239 25.7549 12.1386L25.3771 11.6968C23.9166 9.989 23.1864 9.13504 23.4412 8.31559C23.6961 7.4961 24.7672 7.25375 26.9094 6.76904L27.4637 6.64364C28.0724 6.5059 28.3768 6.43704 28.6212 6.25151C28.8656 6.06598 29.0224 5.78479 29.3358 5.22241L29.6212 4.71042Z" fill="#F6BB06"/>
<path d="M51.2706 4.71042C52.3737 2.73141 52.9253 1.7419 53.75 1.7419C54.5747 1.7419 55.1263 2.7314 56.2294 4.71041L56.5148 5.22241C56.8284 5.78478 56.9851 6.06598 57.2295 6.25151C57.4739 6.43704 57.7782 6.5059 58.387 6.64364L58.9413 6.76904C61.0835 7.25375 62.1547 7.4961 62.4095 8.31559C62.6644 9.13504 61.9342 9.989 60.4737 11.6968L60.0958 12.1386C59.6808 12.6239 59.4733 12.8665 59.3799 13.1667C59.2866 13.467 59.318 13.7907 59.3807 14.4382L59.4378 15.0277C59.6586 17.3063 59.7691 18.4456 59.1019 18.952C58.4347 19.4585 57.4318 18.9967 55.426 18.0732L54.9071 17.8343C54.3371 17.5718 54.0522 17.4406 53.75 17.4406C53.4479 17.4406 53.1629 17.5718 52.593 17.8343L52.0741 18.0732C50.0682 18.9967 49.0653 19.4585 48.3982 18.952C47.731 18.4456 47.8414 17.3063 48.0622 15.0277L48.1193 14.4382C48.1821 13.7907 48.2134 13.467 48.1201 13.1667C48.0267 12.8665 47.8192 12.6239 47.4042 12.1386L47.0264 11.6968C45.5659 9.989 44.8357 9.13504 45.0905 8.31559C45.3454 7.4961 46.4165 7.25375 48.5588 6.76904L49.113 6.64364C49.7217 6.5059 50.0261 6.43704 50.2705 6.25151C50.5149 6.06598 50.6717 5.78479 50.9852 5.22241L51.2706 4.71042Z" fill="#F6BB06"/>
<path d="M72.9199 4.71042C74.023 2.73141 74.5746 1.7419 75.3993 1.7419C76.224 1.7419 76.7756 2.7314 77.8787 4.71041L78.1641 5.22241C78.4777 5.78478 78.6344 6.06598 78.8788 6.25151C79.1232 6.43704 79.4275 6.5059 80.0363 6.64364L80.5906 6.76904C82.7328 7.25375 83.804 7.4961 84.0588 8.31559C84.3136 9.13504 83.5834 9.989 82.123 11.6968L81.7451 12.1386C81.3301 12.6239 81.1226 12.8665 81.0292 13.1667C80.9359 13.467 80.9673 13.7907 81.03 14.4382L81.0871 15.0277C81.3079 17.3063 81.4184 18.4456 80.7512 18.952C80.084 19.4585 79.0811 18.9967 77.0753 18.0732L76.5564 17.8343C75.9864 17.5718 75.7014 17.4406 75.3993 17.4406C75.0972 17.4406 74.8122 17.5718 74.2423 17.8343L73.7233 18.0732C71.7175 18.9967 70.7146 19.4585 70.0475 18.952C69.3803 18.4456 69.4907 17.3063 69.7115 15.0277L69.7686 14.4382C69.8314 13.7907 69.8627 13.467 69.7694 13.1667C69.676 12.8665 69.4685 12.6239 69.0535 12.1386L68.6757 11.6968C67.2152 9.989 66.485 9.13504 66.7398 8.31559C66.9947 7.4961 68.0658 7.25375 70.2081 6.76904L70.7623 6.64364C71.371 6.5059 71.6754 6.43704 71.9198 6.25151C72.1642 6.06598 72.321 5.78479 72.6345 5.22241L72.9199 4.71042Z" fill="#F6BB06"/>
<path d="M94.5692 4.71042C95.6724 2.73141 96.2239 1.7419 97.0486 1.7419C97.8733 1.7419 98.4249 2.7314 99.5281 4.71041L99.8135 5.22241C100.127 5.78478 100.284 6.06598 100.528 6.25151C100.773 6.43704 101.077 6.5059 101.686 6.64364L102.24 6.76904C104.382 7.25375 105.453 7.4961 105.708 8.31559C105.963 9.13504 105.233 9.989 103.772 11.6968L103.394 12.1386C102.979 12.6239 102.772 12.8665 102.679 13.1667C102.585 13.467 102.617 13.7907 102.679 14.4382L102.736 15.0277C102.957 17.3063 103.068 18.4456 102.401 18.952C101.733 19.4585 100.73 18.9967 98.7246 18.0732L98.2057 17.8343C97.6357 17.5718 97.3508 17.4406 97.0486 17.4406C96.7465 17.4406 96.4615 17.5718 95.8916 17.8343L95.3727 18.0732C93.3669 18.9967 92.364 19.4585 91.6968 18.952C91.0296 18.4456 91.14 17.3063 91.3608 15.0277L91.4179 14.4382C91.4807 13.7907 91.5121 13.467 91.4187 13.1667C91.3253 12.8665 91.1178 12.6239 90.7028 12.1386L90.325 11.6968C88.8645 9.989 88.1343 9.13504 88.3892 8.31559C88.644 7.4961 89.7151 7.25375 91.8574 6.76904L92.4116 6.64364C93.0204 6.5059 93.3247 6.43704 93.5691 6.25151C93.8135 6.06598 93.9703 5.78479 94.2838 5.22241L94.5692 4.71042Z" fill="#F6BB06"/>
</svg>

<svg xmlns="http://www.w3.org/2000/svg" width="108" height="21" fill="none"><path fill="#F6BB06" d="M7.972 4.71c1.103-1.979 1.655-2.968 2.48-2.968.824 0 1.376.99 2.479 2.968l.285.512c.314.563.47.844.715 1.03.244.185.549.254 1.157.392l.555.125c2.142.485 3.213.727 3.468 1.547.255.819-.476 1.673-1.936 3.38l-.378.443c-.415.485-.622.728-.716 1.028s-.062.624.001 1.271l.057.59c.221 2.278.331 3.418-.336 3.924s-1.67.045-3.676-.879l-.519-.239c-.57-.262-.854-.393-1.157-.393-.302 0-.587.13-1.157.393l-.519.24c-2.005.923-3.008 1.384-3.675.878-.668-.506-.557-1.646-.336-3.924l.057-.59c.062-.647.094-.971 0-1.271-.093-.3-.3-.543-.715-1.028l-.378-.442c-1.46-1.708-2.19-2.562-1.936-3.381.255-.82 1.326-1.062 3.468-1.547l.554-.125c.61-.138.914-.207 1.158-.392s.401-.467.715-1.03zM29.621 4.71c1.103-1.979 1.655-2.968 2.48-2.968.824 0 1.376.99 2.48 2.968l.284.512c.314.563.47.844.715 1.03.245.185.549.254 1.158.392l.554.125c2.142.485 3.213.727 3.468 1.547.255.819-.475 1.673-1.936 3.38l-.377.443c-.416.485-.623.728-.716 1.028-.094.3-.062.624 0 1.271l.057.59c.221 2.278.332 3.418-.335 3.924-.668.506-1.67.045-3.676-.879l-.52-.239c-.57-.262-.854-.393-1.156-.393s-.587.13-1.157.393l-.52.24c-2.005.923-3.008 1.384-3.675.878s-.557-1.646-.336-3.924l.057-.59c.063-.647.094-.971 0-1.271-.093-.3-.3-.543-.715-1.028l-.378-.442c-1.46-1.708-2.19-2.562-1.936-3.381.255-.82 1.326-1.062 3.468-1.547l.555-.125c.608-.138.913-.207 1.157-.392.245-.186.401-.467.715-1.03zM51.27 4.71c1.104-1.979 1.655-2.968 2.48-2.968s1.376.99 2.48 2.968l.285.512c.313.563.47.844.715 1.03.244.185.548.254 1.157.392l.554.125c2.142.485 3.214.727 3.468 1.547.255.819-.475 1.673-1.935 3.38l-.378.443c-.415.485-.623.728-.716 1.028s-.062.624 0 1.271l.058.59c.22 2.278.331 3.418-.336 3.924s-1.67.045-3.676-.879l-.519-.239c-.57-.262-.855-.393-1.157-.393s-.587.13-1.157.393l-.519.24c-2.006.923-3.009 1.384-3.676.878s-.557-1.646-.336-3.924l.057-.59c.063-.647.094-.971.001-1.271s-.3-.543-.716-1.028l-.378-.442c-1.46-1.708-2.19-2.562-1.936-3.381.255-.82 1.326-1.062 3.469-1.547l.554-.125c.609-.138.913-.207 1.157-.392.245-.186.402-.467.715-1.03zM72.92 4.71c1.103-1.979 1.655-2.968 2.48-2.968.824 0 1.376.99 2.479 2.968l.285.512c.314.563.47.844.715 1.03.244.185.548.254 1.157.392l.555.125c2.142.485 3.213.727 3.468 1.547.255.819-.476 1.673-1.936 3.38l-.378.443c-.415.485-.622.728-.716 1.028s-.062.624.001 1.271l.057.59c.22 2.278.331 3.418-.336 3.924s-1.67.045-3.676-.879l-.519-.239c-.57-.262-.855-.393-1.157-.393s-.587.13-1.157.393l-.519.24c-2.005.923-3.008 1.384-3.675.878-.668-.506-.557-1.646-.337-3.924l.058-.59c.062-.647.094-.971 0-1.271-.093-.3-.3-.543-.716-1.028l-.377-.442c-1.46-1.708-2.191-2.562-1.936-3.381.255-.82 1.326-1.062 3.468-1.547l.554-.125c.609-.138.913-.207 1.158-.392s.401-.467.715-1.03zM94.57 4.71c1.102-1.979 1.654-2.968 2.479-2.968.824 0 1.376.99 2.48 2.968l.285.512c.313.563.47.844.714 1.03.245.185.549.254 1.158.392l.554.125c2.142.485 3.213.727 3.468 1.547.255.819-.475 1.673-1.936 3.38l-.378.443c-.415.485-.622.728-.715 1.028-.094.3-.062.624 0 1.271l.057.59c.221 2.278.332 3.418-.335 3.924-.668.506-1.671.045-3.676-.879l-.52-.239c-.57-.262-.854-.393-1.156-.393-.303 0-.588.13-1.157.393l-.52.24c-2.005.923-3.008 1.384-3.675.878s-.557-1.646-.336-3.924l.057-.59c.063-.647.094-.971 0-1.271-.093-.3-.3-.543-.715-1.028l-.378-.442c-1.46-1.708-2.19-2.562-1.936-3.381.255-.82 1.326-1.062 3.468-1.547l.555-.125c.608-.138.913-.207 1.157-.392.245-.186.401-.467.715-1.03z"/></svg>
